icons/emote/cool.svg

<?xml version="1.0" encoding="UTF-8" standalone="no"?>
<svg
   xmlns:dc="http://purl.org/dc/elements/1.1/"
   xmlns:cc="http://creativecommons.org/ns#"
   xmlns:rdf="http://www.w3.org/1999/02/22-rdf-syntax-ns#"
   xmlns:svg="http://www.w3.org/2000/svg"
   xmlns="http://www.w3.org/2000/svg"
   xmlns:sodipodi="http://sodipodi.sourceforge.net/DTD/sodipodi-0.dtd"
   xmlns:inkscape="http://www.inkscape.org/namespaces/inkscape"
   width="16"
   height="16"
   version="1.1"
   id="svg4"
   sodipodi:docname="face-cool-symbolic.svg"
   inkscape:version="1.0.2 (e86c870879, 2021-01-15)">
  <metadata
     id="metadata10">
    <rdf:RDF>
      <cc:Work
         rdf:about="">
        <dc:format>image/svg+xml</dc:format>
        <dc:type
           rdf:resource="http://purl.org/dc/dcmitype/StillImage" />
      </cc:Work>
    </rdf:RDF>
  </metadata>
  <defs
     id="defs8" />
  <sodipodi:namedview
     pagecolor="#ffffff"
     bordercolor="#666666"
     borderopacity="1"
     objecttolerance="10"
     gridtolerance="10"
     guidetolerance="10"
     inkscape:pageopacity="0"
     inkscape:pageshadow="2"
     inkscape:window-width="1920"
     inkscape:window-height="1016"
     id="namedview6"
     showgrid="true"
     inkscape:zoom="27.5"
     inkscape:cx="-0.99517877"
     inkscape:cy="6.2679283"
     inkscape:window-x="0"
     inkscape:window-y="27"
     inkscape:window-maximized="1"
     inkscape:current-layer="svg4">
    <inkscape:grid
       type="xygrid"
       id="grid1406" />
  </sodipodi:namedview>
  <path
     id="path1452"
     style="opacity:1;fill:#808080;fill-rule:evenodd;stroke:none;stroke-linecap:round"
     d="M 2 6 A 2.5 3 0 0 0 4.5 9 A 2.5 3 0 0 0 6.8574219 7 L 8.1425781 7 A 2.5 3 0 0 0 10.5 9 A 2.5 3 0 0 0 13 6 L 9 6 L 7 6 L 6 6 L 2 6 z " />
  <path
     id="path987"
     style="display:inline;fill:#808080;fill-opacity:1;stroke:none;stroke-width:1"
     d="m 3,10 v 0.625 c 0,0.08624 0.035161,0.245677 0.089844,0.429688 1.8112356,1.205811 6.761855,1.224989 8.716797,0.06055 0.102272,-0.270148 0.159008,-0.491793 0.166015,-0.583984 l 0.02734,-0.53125 c -1.83404,1.30345 -7.2056068,1.30345 -8.9999998,0 z" />
  <path
     id="path993"
     style="fill:#808080;fill-opacity:1;fill-rule:evenodd;stroke:none;stroke-width:0.75;stroke-linecap:square;stroke-linejoin:round;stroke-opacity:1"
     d="m 7.4628915,1 a 7.5,7.5 0 0 0 -7.4628915,7.5 7.5,7.5 0 0 0 7.5000005,7.5 7.5,7.5 0 0 0 7.5000005,-7.5 7.5,7.5 0 0 0 -7.5000005,-7.5 7.5,7.5 0 0 0 -0.037109,0 z m 0.03711,1 a 6.5,6.5 0 0 1 6.5000005,6.5 6.5,6.5 0 0 1 -6.5000005,6.5 6.5,6.5 0 0 1 -6.5000005,-6.5 6.5,6.5 0 0 1 6.5000005,-6.5 z" />
</svg>

<?xml version="1.0" encoding="UTF-8" standalone="no"?>
<svg
   width="16"
   height="16"
   version="1.1"
   id="svg4"
   sodipodi:docname="cool.svg"
   inkscape:version="1.1 (ce6663b3b7, 2021-05-25)"
   xmlns:inkscape="http://www.inkscape.org/namespaces/inkscape"
   xmlns:sodipodi="http://sodipodi.sourceforge.net/DTD/sodipodi-0.dtd"
   xmlns="http://www.w3.org/2000/svg"
   xmlns:svg="http://www.w3.org/2000/svg"
   xmlns:rdf="http://www.w3.org/1999/02/22-rdf-syntax-ns#"
   xmlns:cc="http://creativecommons.org/ns#"
   xmlns:dc="http://purl.org/dc/elements/1.1/">
  <metadata
     id="metadata10">
    <rdf:RDF>
      <cc:Work
         rdf:about="">
        <dc:format>image/svg+xml</dc:format>
        <dc:type
           rdf:resource="http://purl.org/dc/dcmitype/StillImage" />
      </cc:Work>
    </rdf:RDF>
  </metadata>
  <defs
     id="defs8" />
  <sodipodi:namedview
     pagecolor="#ffffff"
     bordercolor="#666666"
     borderopacity="1"
     objecttolerance="10"
     gridtolerance="10"
     guidetolerance="10"
     inkscape:pageopacity="0"
     inkscape:pageshadow="2"
     inkscape:window-width="1920"
     inkscape:window-height="1016"
     id="namedview6"
     showgrid="true"
     inkscape:zoom="38.890872"
     inkscape:cx="6.8782207"
     inkscape:cy="8.4981381"
     inkscape:window-x="0"
     inkscape:window-y="27"
     inkscape:window-maximized="1"
     inkscape:current-layer="svg4"
     inkscape:pagecheckerboard="0">
    <inkscape:grid
       type="xygrid"
       id="grid1406" />
  </sodipodi:namedview>
  <path
     id="path1232"
     style="opacity:1;fill:#808080;fill-rule:evenodd;stroke:none;stroke-linecap:round"
     d="M 7.5 1 A 7.5 7.5 0 0 0 0 8.5 A 7.5 7.5 0 0 0 7.5 16 A 7.5 7.5 0 0 0 15 8.5 A 7.5 7.5 0 0 0 7.5 1 z M 7.5 2 A 6.5 6.5 0 0 1 14 8.5 A 6.5 6.5 0 0 1 7.5 15 A 6.5 6.5 0 0 1 1 8.5 A 6.5 6.5 0 0 1 7.5 2 z M 2 6 A 2.5 3 0 0 0 4.5 9 A 2.5 3 0 0 0 6.8574219 7 L 8.1425781 7 A 2.5 3 0 0 0 10.5 9 A 2.5 3 0 0 0 13 6 L 9 6 L 7 6 L 6 6 L 2 6 z M 3 10 L 3 10.625 C 3 10.71124 3.0351608 10.870677 3.0898438 11.054688 C 4.9010794 12.260499 9.8516982 12.279669 11.806641 11.115234 C 11.908913 10.845086 11.965649 10.623441 11.972656 10.53125 L 12 10 C 10.16596 11.30345 4.794393 11.30345 3 10 z " />
</svg>
